pro/src/icons/stroke-building.svg

<svg width="48" height="48" viewBox="0 0 48 48" fill="none" xmlns="http://www.w3.org/2000/svg">
<g id="icon">
    <path fill-rule="evenodd" clip-rule="evenodd" d="M22 4C21.4523 4 21 4.45228 21 5V23H28C30.2123 23 32 24.7877 32 27V45C32 45.5523 31.5523 46 31 46H22C21.4477 46 21 45.5523 21 45V37C21 36.4523 20.5477 36 20 36H18C17.4523 36 17 36.4523 17 37V45C17 45.5523 16.5523 46 16 46H4C3.44772 46 3 45.5523 3 45C3 44.4477 3.44772 44 4 44H6V27C6 24.7877 7.78771 23 10 23H11C11.5523 23 12 23.4477 12 24C12 24.5523 11.5523 25 11 25H10C8.89228 25 8 25.8923 8 27V44H15V37C15 35.3477 16.3477 34 18 34H20C21.6523 34 23 35.3477 23 37V44H30V27C30 25.8923 29.1077 25 28 25H16C15.4477 25 15 24.5523 15 24C15 23.4477 15.4477 23 16 23H19V5C19 3.34772 20.3477 2 22 2H40C41.6523 2 43 3.34772 43 5V12C43 12.5523 42.5523 13 42 13C41.4477 13 41 12.5523 41 12V5C41 4.45228 40.5477 4 40 4H22Z" fill="currentColor"/>
    <path d="M42 16.1C42.5523 16.1 43 16.5477 43 17.1V44H44C44.5523 44 45 44.4477 45 45C45 45.5523 44.5523 46 44 46L36 46C35.4477 46 35 45.5523 35 45C35 44.4477 35.4477 44 36 44H41V17.1C41 16.5477 41.4477 16.1 42 16.1Z" fill="currentColor"/>
    <path d="M37 16C37.5523 16 38 16.4477 38 17V19C38 19.5523 37.5523 20 37 20C36.4477 20 36 19.5523 36 19V17C36 16.4477 36.4477 16 37 16Z" fill="currentColor"/>
    <path d="M38 25C38 24.4477 37.5523 24 37 24C36.4477 24 36 24.4477 36 25V27C36 27.5523 36.4477 28 37 28C37.5523 28 38 27.5523 38 27V25Z" fill="currentColor"/>
    <path d="M37 33C37.5523 33 38 33.4477 38 34V36C38 36.5523 37.5523 37 37 37C36.4477 37 36 36.5523 36 36V34C36 33.4477 36.4477 33 37 33Z" fill="currentColor"/>
    <path d="M38 9C38 8.44772 37.5523 8 37 8C36.4477 8 36 8.44772 36 9V11C36 11.5523 36.4477 12 37 12C37.5523 12 38 11.5523 38 11V9Z" fill="currentColor"/>
    <path d="M31 16C31.5523 16 32 16.4477 32 17V19C32 19.5523 31.5523 20 31 20C30.4477 20 30 19.5523 30 19V17C30 16.4477 30.4477 16 31 16Z" fill="currentColor"/>
    <path d="M32 9C32 8.44772 31.5523 8 31 8C30.4477 8 30 8.44772 30 9V11C30 11.5523 30.4477 12 31 12C31.5523 12 32 11.5523 32 11V9Z" fill="currentColor"/>
    <path d="M25 16C25.5523 16 26 16.4477 26 17V19C26 19.5523 25.5523 20 25 20C24.4477 20 24 19.5523 24 19V17C24 16.4477 24.4477 16 25 16Z" fill="currentColor"/>
    <path d="M26 9C26 8.44772 25.5523 8 25 8C24.4477 8 24 8.44772 24 9V11C24 11.5523 24.4477 12 25 12C25.5523 12 26 11.5523 26 11V9Z" fill="currentColor"/>
</g>
</svg>

<svg xmlns="http://www.w3.org/2000/svg" width="48" height="48" fill="none"><g id="icon" fill="currentColor"><path fill-rule="evenodd" d="M22 4c-.548 0-1 .452-1 1v18h7c2.212 0 4 1.788 4 4v18a1 1 0 0 1-1 1h-9a1 1 0 0 1-1-1v-8c0-.548-.452-1-1-1h-2c-.548 0-1 .452-1 1v8a1 1 0 0 1-1 1H4a1 1 0 1 1 0-2h2V27c0-2.212 1.788-4 4-4h1a1 1 0 1 1 0 2h-1c-1.108 0-2 .892-2 2v17h7v-7c0-1.652 1.348-3 3-3h2c1.652 0 3 1.348 3 3v7h7V27c0-1.108-.892-2-2-2H16a1 1 0 1 1 0-2h3V5c0-1.652 1.348-3 3-3h18c1.652 0 3 1.348 3 3v7a1 1 0 1 1-2 0V5c0-.548-.452-1-1-1z" clip-rule="evenodd"/><path d="M42 16.1a1 1 0 0 1 1 1V44h1a1 1 0 1 1 0 2h-8a1 1 0 1 1 0-2h5V17.1a1 1 0 0 1 1-1M37 16a1 1 0 0 1 1 1v2a1 1 0 1 1-2 0v-2a1 1 0 0 1 1-1M38 25a1 1 0 1 0-2 0v2a1 1 0 1 0 2 0z"/><path d="M37 33a1 1 0 0 1 1 1v2a1 1 0 1 1-2 0v-2a1 1 0 0 1 1-1M38 9a1 1 0 1 0-2 0v2a1 1 0 1 0 2 0zM31 16a1 1 0 0 1 1 1v2a1 1 0 1 1-2 0v-2a1 1 0 0 1 1-1M32 9a1 1 0 1 0-2 0v2a1 1 0 1 0 2 0zM25 16a1 1 0 0 1 1 1v2a1 1 0 1 1-2 0v-2a1 1 0 0 1 1-1M26 9a1 1 0 1 0-2 0v2a1 1 0 1 0 2 0z"/></g></svg>
